X: 38637
T: Storm-stayed At Grady's
R: reel
M: 4/4
K: Edorian
E2 EG FDB,D|DFAF (3GGG EF|GB (3BBB dBGB|Aegf e2 ED|
E2 EG FDB,D|DFAF (3GGG EF|GB (3BBB dBGB|Aegf e2 ED:|
Be (3eee fedf|(3ddd fd gdfd|Be (3eee fedf|gfed eEEA|
Be (3eee fedf|(3ddd fd gdfd|gbag fage|(3ddd BA BEEA|
Be (3eee fedf|(3ddd fd gdfd|gefd edBA|(3Bcd AF GEFD|
B,2 EG FDB,D|DFAF (3GGG EF|GB (3BBB dBGB|Aegf e2 ED||

